;Sliced by ideaMaker 3.1.7.1850, 2018-08-17 17:09:54 UTC-0700
;Dimension: 305.000 305.000 605.000 0.400
;Extruder Offset #1: 0.000 0.000
;Filament Diameter #1: 1.750
;Filament Diameter #2: 1.750
;Filament Compensation #1: 90.00
;Filament Compensation #2: 90.00
;Filament Density #1: 1240.00
;Filament Density #2: 1120.00
;Model Gap: 0.200
M221 T0 S90.00
M140 S60.00
M104 T0 S205.00
M109 T0 S205.00
T0
M190 S60.00
G21
G90
M82
M107
G28 X0 Y0
G28 Z0
G1 Z15.0 F6000.0
G92 E0
G1 F140 E29
G1 X20 Y0 F140 E30
G92 E0
G1 F6000.0
M117 Printing...
M1001
M106 S0
;LAYER:-2
;Z:0.500
;HEIGHT:0.500
G1 F2400 E-1.5000
M204 S1000.00
G0 F6000 X83.483 Y37.990
G0 F1500 Z0.500
;TYPE:SKIRT
;WIDTH:0.500
G1 F1500 E0.0000
G1 F900 X83.941 Y37.155 E0.0990
G1 X84.432 Y36.466 E0.1869
G1 X84.982 Y35.845 E0.2731
G1 X85.742 Y35.174 E0.3785
G1 X86.672 Y34.554 E0.4947
G1 X87.316 Y34.226 E0.5698
G1 X87.784 Y34.034 E0.6224
G1 X88.866 Y33.723 E0.7394
G1 X89.769 Y33.582 E0.8344
G1 X90.529 Y33.542 E0.9135
G1 X94.564 Y33.545 E1.3329
G1 X95.560 Y33.619 E1.4367
G1 X96.148 Y33.713 E1.4986
G1 X96.952 Y33.694 E1.5822
G1 X100.987 Y33.697 E2.0016
G1 X101.551 Y33.726 E2.0603
G1 X102.621 Y33.890 E2.1728
G1 X103.579 Y34.170 E2.2765
G1 X104.423 Y34.535 E2.3721
G1 X105.187 Y34.978 E2.4639
G1 X105.887 Y35.499 E2.5546
G1 X106.566 Y36.137 E2.6514
G1 X107.101 Y36.773 E2.7378
G1 X107.621 Y37.555 E2.8354
G1 X108.057 Y38.422 E2.9363
G1 X108.302 Y39.082 E3.0095
G1 X108.553 Y40.092 E3.1176
G1 X108.640 Y40.737 E3.1853
G1 X108.675 Y41.379 E3.2521
G1 X108.670 Y45.619 E3.6928
G1 X108.583 Y46.628 E3.7981
G1 X108.463 Y47.255 E3.8644
G1 X108.324 Y47.813 E3.9242
G1 X108.316 Y47.970 E3.9405
G1 X108.320 Y68.984 E6.1247
G1 X108.329 Y69.120 E6.1388
G1 X108.510 Y69.882 E6.2202
G1 X108.591 Y70.378 E6.2725
G1 X108.658 Y71.300 E6.3686
G1 X108.659 Y75.421 E6.7969
G1 X108.580 Y76.462 E6.9054
G1 X108.385 Y77.430 E7.0080
G1 X108.162 Y78.126 E7.0840
G1 X107.984 Y78.560 E7.1327
G1 X107.363 Y79.679 E7.2658
G1 X106.823 Y80.402 E7.3596
G1 X106.148 Y81.107 E7.4610
G1 X105.614 Y81.556 E7.5335
G1 X105.194 Y81.856 E7.5872
G1 X104.179 Y82.421 E7.7079
G1 X103.456 Y82.716 E7.7891
G1 X102.405 Y83.000 E7.9022
G1 X101.665 Y83.110 E7.9800
G1 X101.077 Y83.147 E8.0412
G1 X97.464 Y83.161 E8.4168
G1 X97.340 Y83.198 E8.4302
G1 X96.508 Y83.665 E8.5294
G1 X95.574 Y84.055 E8.6346
G1 X94.718 Y84.295 E8.7270
G1 X93.843 Y84.436 E8.8191
G1 X93.018 Y84.483 E8.9050
G1 X89.094 Y84.483 E9.3128
G1 X88.048 Y84.411 E9.4218
G1 X87.121 Y84.237 E9.5198
G1 X86.691 Y84.114 E9.5663
G1 X85.450 Y83.592 E9.7063
G1 X84.799 Y83.212 E9.7846
G1 X84.368 Y82.909 E9.8394
G1 X83.556 Y82.197 E9.9516
G1 X82.883 Y81.430 E10.0577
G1 X82.585 Y81.013 E10.1109
G1 X82.047 Y80.052 E10.2254
G1 X81.642 Y79.021 E10.3405
G1 X81.478 Y78.393 E10.4080
G1 X81.363 Y77.731 E10.4778
G1 X81.290 Y76.691 E10.5862
G1 X81.291 Y72.742 E10.9967
G1 X81.330 Y71.965 E11.0775
G1 X81.369 Y71.579 E11.1178
G1 X81.229 Y70.589 E11.2218
G1 X81.181 Y69.712 E11.3131
G1 X81.181 Y48.055 E13.5640
G1 X81.251 Y46.977 E13.6763
G1 X81.346 Y46.357 E13.7415
G1 X81.457 Y45.866 E13.7938
G1 X81.785 Y44.850 E13.9048
G1 X82.139 Y44.071 E13.9937
G1 X82.715 Y43.055 E14.1151
G1 X82.735 Y42.888 E14.1326
G1 X82.736 Y41.317 E14.2959
G1 X82.790 Y40.438 E14.3874
G1 X82.935 Y39.578 E14.4781
G1 X83.164 Y38.770 E14.5654
G1 X83.483 Y37.990 E14.6530
G0 F6000 X83.922 Y38.229
G1 F900 X84.349 Y37.444 E14.7458
G1 X84.806 Y36.798 E14.8281
G1 X85.356 Y36.177 E14.9143
G1 X86.021 Y35.589 E15.0066
G1 X86.899 Y34.999 E15.1165
G1 X87.506 Y34.689 E15.1874
G1 X87.974 Y34.497 E15.2399
G1 X89.003 Y34.204 E15.3511
G1 X89.796 Y34.081 E15.4346
G1 X90.529 Y34.042 E15.5108
G1 X94.564 Y34.045 E15.9302
G1 X95.522 Y34.118 E16.0301
G1 X96.112 Y34.214 E16.0922
G1 X96.952 Y34.194 E16.1796
G1 X100.987 Y34.197 E16.5989
G1 X101.525 Y34.225 E16.6549
G1 X102.482 Y34.370 E16.7555
G1 X103.382 Y34.630 E16.8529
G1 X104.172 Y34.968 E16.9422
G1 X104.936 Y35.411 E17.0340
G1 X105.546 Y35.864 E17.1130
G1 X106.185 Y36.461 E17.2039
G1 X106.686 Y37.051 E17.2843
G1 X107.175 Y37.781 E17.3757
G1 X107.588 Y38.596 E17.4706
G1 X107.833 Y39.256 E17.5438
G1 X108.057 Y40.159 E17.6405
G1 X108.144 Y40.804 E17.7081
G1 X108.175 Y41.379 E17.7680
G1 X108.172 Y45.577 E18.2043
G1 X108.092 Y46.535 E18.3042
G1 X107.978 Y47.134 E18.3676
G1 X107.828 Y47.738 E18.4323
G1 X107.816 Y47.970 E18.4565
G1 X107.820 Y69.003 E20.6426
G1 X107.833 Y69.196 E20.6627
G1 X108.023 Y69.997 E20.7482
G1 X108.097 Y70.457 E20.7967
G1 X108.159 Y71.335 E20.8882
G1 X108.160 Y75.385 E21.3091
G1 X108.089 Y76.365 E21.4112
G1 X107.909 Y77.278 E21.5080
G1 X107.699 Y77.936 E21.5797
G1 X107.521 Y78.370 E21.6285
G1 X106.962 Y79.380 E21.7485
G1 X106.422 Y80.103 E21.8423
G1 X105.826 Y80.725 E21.9318
G1 X105.323 Y81.149 E22.0002
G1 X104.903 Y81.449 E22.0538
G1 X103.937 Y81.983 E22.1686
G1 X103.269 Y82.252 E22.2434
G1 X102.276 Y82.517 E22.3502
G1 X101.633 Y82.611 E22.4178
G1 X101.076 Y82.647 E22.4758
G1 X97.561 Y82.653 E22.8411
G1 X97.373 Y82.666 E22.8607
G1 X97.144 Y82.735 E22.8856
G1 X96.313 Y83.204 E22.9848
G1 X95.438 Y83.574 E23.0835
G1 X94.638 Y83.801 E23.1699
G1 X93.763 Y83.942 E23.2621
G1 X93.018 Y83.983 E23.3396
G1 X89.094 Y83.983 E23.7475
G1 X88.083 Y83.912 E23.8528
G1 X87.259 Y83.756 E23.9400
G1 X86.829 Y83.633 E23.9864
G1 X85.701 Y83.160 E24.1136
G1 X85.087 Y82.803 E24.1874
G1 X84.656 Y82.500 E24.2422
G1 X83.887 Y81.822 E24.3487
G1 X83.290 Y81.139 E24.4430
G1 X82.992 Y80.722 E24.4963
G1 X82.484 Y79.809 E24.6049
G1 X82.108 Y78.840 E24.7129
G1 X81.970 Y78.306 E24.7702
G1 X81.862 Y77.695 E24.8347
G1 X81.790 Y76.691 E24.9393
G1 X81.790 Y72.767 E25.3472
G1 X81.827 Y72.015 E25.4255
G1 X81.872 Y71.567 E25.4722
G1 X81.724 Y70.519 E25.5823
G1 X81.681 Y69.712 E25.6663
G1 X81.681 Y48.055 E27.9172
G1 X81.745 Y47.052 E28.0217
G1 X81.834 Y46.467 E28.0832
G1 X81.945 Y45.976 E28.1355
G1 X82.241 Y45.056 E28.2360
G1 X82.574 Y44.318 E28.3201
G1 X83.170 Y43.267 E28.4457
G1 X83.204 Y43.173 E28.4561
G1 X83.235 Y42.913 E28.4833
G1 X83.235 Y41.346 E28.6462
G1 X83.283 Y40.519 E28.7323
G1 X83.416 Y39.713 E28.8172
G1 X83.628 Y38.957 E28.8988
G1 X83.922 Y38.229 E28.9804
G0 F6000 X84.362 Y38.466
G1 F900 X84.758 Y37.731 E29.0672
G1 X85.181 Y37.128 E29.1437
G1 X85.690 Y36.550 E29.2238
G1 X86.301 Y36.003 E29.3090
G1 X87.127 Y35.444 E29.4127
G1 X87.696 Y35.152 E29.4792
G1 X88.164 Y34.960 E29.5317
G1 X89.139 Y34.685 E29.6370
G1 X89.870 Y34.576 E29.7139
G1 X90.529 Y34.542 E29.7824
G1 X94.564 Y34.545 E30.2018
G1 X95.442 Y34.612 E30.2934
G1 X96.076 Y34.715 E30.3601
G1 X96.952 Y34.694 E30.4512
G1 X100.987 Y34.697 E30.8706
G1 X101.499 Y34.724 E30.9239
G1 X102.345 Y34.851 E31.0128
G1 X103.187 Y35.091 E31.1038
G1 X103.923 Y35.402 E31.1868
G1 X104.639 Y35.813 E31.2726
G1 X105.206 Y36.231 E31.3459
G1 X105.804 Y36.785 E31.4306
G1 X106.305 Y37.375 E31.5110
G1 X106.730 Y38.009 E31.5904
G1 X107.119 Y38.770 E31.6792
G1 X107.364 Y39.430 E31.7524
G1 X107.561 Y40.226 E31.8376
G1 X107.648 Y40.871 E31.9053
G1 X107.675 Y41.379 E31.9581
G1 X107.674 Y45.537 E32.3903
G1 X107.601 Y46.442 E32.4847
G1 X107.493 Y47.013 E32.5451
G1 X107.331 Y47.663 E32.6147
G1 X107.316 Y47.970 E32.6466
G1 X107.320 Y69.024 E34.8350
G1 X107.337 Y69.268 E34.8604
G1 X107.529 Y70.076 E34.9467
G1 X107.603 Y70.536 E34.9951
G1 X107.659 Y71.335 E35.0784
G1 X107.661 Y75.349 E35.4956
G1 X107.590 Y76.329 E35.5977
G1 X107.432 Y77.127 E35.6823
G1 X107.236 Y77.746 E35.7497
G1 X107.058 Y78.180 E35.7985
G1 X106.525 Y79.137 E35.9124
G1 X106.023 Y79.802 E35.9990
G1 X105.503 Y80.343 E36.0770
G1 X105.032 Y80.742 E36.1411
G1 X104.612 Y81.042 E36.1948
G1 X103.750 Y81.519 E36.2972
G1 X103.082 Y81.788 E36.3720
G1 X102.149 Y82.033 E36.4723
G1 X101.600 Y82.112 E36.5299
G1 X101.075 Y82.147 E36.5846
G1 X97.540 Y82.153 E36.9520
G1 X97.283 Y82.171 E36.9788
G1 X96.946 Y82.272 E37.0154
G1 X96.116 Y82.744 E37.1146
G1 X95.300 Y83.094 E37.2069
G1 X94.557 Y83.308 E37.2873
G1 X93.735 Y83.443 E37.3738
G1 X93.018 Y83.483 E37.4485
G1 X89.094 Y83.483 E37.8563
G1 X88.175 Y83.420 E37.9521
G1 X87.397 Y83.275 E38.0343
G1 X86.967 Y83.152 E38.0808
G1 X85.896 Y82.699 E38.2017
G1 X85.341 Y82.372 E38.2686
G1 X84.945 Y82.092 E38.3190
G1 X84.219 Y81.448 E38.4199
G1 X83.697 Y80.848 E38.5026
G1 X83.399 Y80.431 E38.5559
G1 X82.922 Y79.567 E38.6584
G1 X82.592 Y78.713 E38.7536
G1 X82.462 Y78.219 E38.8067
G1 X82.354 Y77.608 E38.8712
G1 X82.290 Y76.691 E38.9667
G1 X82.290 Y72.767 E39.3746
G1 X82.325 Y72.065 E39.4476
G1 X82.373 Y71.586 E39.4977
G1 X82.364 Y71.401 E39.5169
G1 X82.223 Y70.492 E39.6125
G1 X82.181 Y69.712 E39.6937
G1 X82.181 Y48.055 E41.9447
G1 X82.239 Y47.127 E42.0413
G1 X82.328 Y46.542 E42.1028
G1 X82.432 Y46.088 E42.1512
G1 X82.717 Y45.210 E42.2472
G1 X83.029 Y44.526 E42.3253
G1 X83.626 Y43.477 E42.4508
G1 X83.686 Y43.309 E42.4693
G1 X83.722 Y43.129 E42.4884
G1 X83.735 Y42.931 E42.5090
G1 X83.735 Y41.346 E42.6738
G1 X83.782 Y40.548 E42.7569
G1 X83.898 Y39.846 E42.8308
G1 X84.093 Y39.142 E42.9067
G1 X84.362 Y38.466 E42.9824
G1 F2400 E41.4824
G0 F6000 X84.827 Y38.651
G1 F1500 E42.9824
G1 F900 X85.197 Y37.970 E43.0629
G1 X85.557 Y37.457 E43.1281
G1 X86.024 Y36.923 E43.2018
G1 X86.635 Y36.376 E43.2870
G1 X87.355 Y35.889 E43.3774
G1 X87.924 Y35.597 E43.4438
G1 X88.352 Y35.423 E43.4919
G1 X89.273 Y35.167 E43.5912
G1 X89.941 Y35.071 E43.6614
G1 X90.529 Y35.042 E43.7226
G1 X94.564 Y35.045 E44.1419
G1 X95.362 Y35.106 E44.2251
G1 X96.040 Y35.216 E44.2965
G1 X96.952 Y35.194 E44.3913
G1 X100.987 Y35.197 E44.8107
G1 X101.472 Y35.223 E44.8612
G1 X102.210 Y35.332 E44.9387
G1 X102.992 Y35.552 E45.0232
G1 X103.728 Y35.863 E45.1062
G1 X104.344 Y36.217 E45.1801
G1 X104.868 Y36.599 E45.2475
G1 X105.424 Y37.110 E45.3260
G1 X105.891 Y37.655 E45.4006
G1 X106.286 Y38.238 E45.4738
G1 X106.650 Y38.944 E45.5563
G1 X106.895 Y39.604 E45.6295
G1 X107.066 Y40.294 E45.7034
G1 X107.149 Y40.898 E45.7667
G1 X107.175 Y41.379 E45.8168
G1 X107.175 Y45.498 E46.2449
G1 X107.109 Y46.350 E46.3338
G1 X107.008 Y46.892 E46.3911
G1 X106.834 Y47.588 E46.4656
G1 X106.816 Y47.970 E46.5054
G1 X106.820 Y69.045 E48.6959
G1 X106.841 Y69.341 E48.7267
G1 X107.035 Y70.155 E48.8137
G1 X107.109 Y70.615 E48.8621
G1 X107.159 Y71.335 E48.9371
G1 X107.161 Y75.349 E49.3543
G1 X107.091 Y76.292 E49.4526
G1 X106.955 Y76.976 E49.5251
G1 X106.759 Y77.595 E49.5926
G1 X106.596 Y77.988 E49.6368
G1 X106.089 Y78.893 E49.7446
G1 X105.661 Y79.457 E49.8182
G1 X105.179 Y79.962 E49.8908
G1 X104.741 Y80.335 E49.9506
G1 X104.321 Y80.635 E50.0042
G1 X103.563 Y81.055 E50.0943
G1 X102.895 Y81.324 E50.1691
G1 X102.076 Y81.538 E50.2571
G1 X101.567 Y81.613 E50.3106
G1 X101.042 Y81.648 E50.3653
G1 X97.518 Y81.653 E50.7316
G1 X97.210 Y81.675 E50.7637
G1 X96.965 Y81.730 E50.7898
G1 X96.729 Y81.820 E50.8160
G1 X95.869 Y82.309 E50.9188
G1 X95.159 Y82.614 E50.9991
G1 X94.474 Y82.815 E51.0733
G1 X93.707 Y82.944 E51.1542
G1 X93.018 Y82.983 E51.2259
G1 X89.094 Y82.983 E51.6338
G1 X88.210 Y82.921 E51.7259
G1 X87.490 Y82.784 E51.8021
G1 X87.107 Y82.672 E51.8435
G1 X86.148 Y82.267 E51.9517
G1 X85.630 Y81.964 E52.0141
G1 X85.234 Y81.684 E52.0645
G1 X84.552 Y81.075 E52.1595
G1 X84.076 Y80.522 E52.2354
G1 X83.807 Y80.142 E52.2838
G1 X83.388 Y79.385 E52.3737
G1 X83.076 Y78.586 E52.4629
G1 X82.946 Y78.092 E52.5159
G1 X82.846 Y77.522 E52.5761
G1 X82.790 Y76.691 E52.6627
G1 X82.790 Y72.767 E53.0705
G1 X82.823 Y72.115 E53.1384
G1 X82.874 Y71.604 E53.1917
G1 X82.861 Y71.345 E53.2187
G1 X82.722 Y70.465 E53.3113
G1 X82.681 Y69.712 E53.3897
G1 X82.681 Y48.055 E55.6407
G1 X82.733 Y47.202 E55.7295
G1 X82.822 Y46.617 E55.7910
G1 X82.908 Y46.242 E55.8310
G1 X83.193 Y45.364 E55.9269
G1 X83.483 Y44.736 E55.9988
G1 X84.083 Y43.684 E56.1247
G1 X84.168 Y43.447 E56.1509
G1 X84.219 Y43.194 E56.1777
G1 X84.235 Y42.948 E56.2033
G1 X84.235 Y41.346 E56.3698
G1 X84.276 Y40.627 E56.4447
G1 X84.380 Y39.978 E56.5130
G1 X84.558 Y39.327 E56.5831
G1 X84.827 Y38.651 E56.6588
G1 F2400 E55.1588
G0 F6000 X85.292 Y38.836
G1 F1500 E56.6588
G1 F900 X85.608 Y38.255 E56.7275
G1 X85.935 Y37.784 E56.7871
G1 X86.358 Y37.296 E56.8542
G1 X86.969 Y36.749 E56.9395
G1 X87.583 Y36.334 E57.0165
G1 X88.152 Y36.042 E57.0830
G1 X88.538 Y35.887 E57.1262
G1 X89.405 Y35.649 E57.2197
G1 X89.966 Y35.570 E57.2785
G1 X90.529 Y35.542 E57.3371
G1 X94.564 Y35.545 E57.7565
G1 X95.282 Y35.600 E57.8314
G1 X96.004 Y35.717 E57.9074
G1 X96.952 Y35.694 E58.0059
G1 X100.987 Y35.697 E58.4253
G1 X101.445 Y35.722 E58.4730
G1 X102.077 Y35.814 E58.5394
G1 X102.799 Y36.013 E58.6172
G1 X103.481 Y36.298 E58.6941
G1 X104.049 Y36.621 E58.7620
G1 X104.573 Y37.003 E58.8294
G1 X105.046 Y37.437 E58.8961
G1 X105.479 Y37.938 E58.9649
G1 X105.843 Y38.469 E59.0318
G1 X106.182 Y39.120 E59.1081
G1 X106.410 Y39.726 E59.1754
G1 X106.571 Y40.364 E59.2438
G1 X106.650 Y40.925 E59.3027
G1 X106.675 Y41.379 E59.3500
G1 X106.676 Y45.461 E59.7742
G1 X106.617 Y46.258 E59.8573
G1 X106.516 Y46.800 E59.9146
G1 X106.411 Y47.173 E59.9549
G1 X106.337 Y47.523 E59.9921
G1 X106.316 Y47.970 E60.0386
G1 X106.320 Y69.067 E62.2313
G1 X106.345 Y69.414 E62.2675
G1 X106.541 Y70.234 E62.3551
G1 X106.615 Y70.694 E62.4036
G1 X106.659 Y71.335 E62.4703
G1 X106.661 Y75.349 E62.8875
G1 X106.600 Y76.197 E62.9759
G1 X106.478 Y76.825 E63.0424
G1 X106.282 Y77.444 E63.1099
G1 X106.135 Y77.795 E63.1494
G1 X105.689 Y78.593 E63.2445
G1 X105.298 Y79.113 E63.3121
G1 X104.855 Y79.581 E63.3791
G1 X104.417 Y79.954 E63.4389
G1 X104.032 Y80.227 E63.4879
G1 X103.322 Y80.617 E63.5721
G1 X102.711 Y80.859 E63.6404
G1 X102.002 Y81.044 E63.7166
G1 X101.534 Y81.114 E63.7658
G1 X101.009 Y81.149 E63.8204
G1 X97.495 Y81.153 E64.1857
G1 X97.139 Y81.179 E64.2228
G1 X96.820 Y81.250 E64.2568
G1 X96.514 Y81.367 E64.2908
G1 X95.622 Y81.874 E64.3974
G1 X95.018 Y82.134 E64.4658
G1 X94.333 Y82.335 E64.5400
G1 X93.678 Y82.445 E64.6090
G1 X93.018 Y82.483 E64.6777
G1 X89.094 Y82.483 E65.0856
G1 X88.246 Y82.422 E65.1740
G1 X87.630 Y82.304 E65.2392
G1 X87.247 Y82.192 E65.2806
G1 X86.399 Y81.835 E65.3763
G1 X85.919 Y81.556 E65.4340
G1 X85.523 Y81.276 E65.4844
G1 X84.930 Y80.748 E65.5669
G1 X84.484 Y80.233 E65.6377
G1 X84.215 Y79.853 E65.6861
G1 X83.826 Y79.144 E65.7702
G1 X83.559 Y78.456 E65.8469
G1 X83.438 Y78.006 E65.8953
G1 X83.338 Y77.436 E65.9554
G1 X83.290 Y76.691 E66.0330
G1 X83.290 Y72.767 E66.4409
G1 X83.321 Y72.164 E66.5036
G1 X83.375 Y71.621 E66.5604
G1 X83.358 Y71.285 E66.5953
G1 X83.221 Y70.437 E66.6846
G1 X83.181 Y69.712 E66.7601
G1 X83.180 Y48.085 E69.0079
G1 X83.228 Y47.275 E69.0923
G1 X83.309 Y46.729 E69.1497
G1 X83.395 Y46.354 E69.1896
G1 X83.648 Y45.572 E69.2751
G1 X83.917 Y44.984 E69.3423
G1 X84.540 Y43.893 E69.4729
G1 X84.651 Y43.582 E69.5072
G1 X84.716 Y43.259 E69.5414
G1 X84.735 Y42.965 E69.5721
G1 X84.735 Y41.346 E69.7403
G1 X84.770 Y40.706 E69.8069
G1 X84.874 Y40.057 E69.8753
G1 X85.023 Y39.512 E69.9340
G1 X85.292 Y38.836 E70.0096
G0 F6000 X85.953 Y39.190
;TYPE:RAFT
;WIDTH:1.000
G1 F480 X86.224 Y38.683 E70.1291
G1 X86.551 Y38.212 E70.2483
G1 X86.921 Y37.791 E70.3648
G1 X87.465 Y37.312 E70.5155
G1 X87.929 Y36.999 E70.6318
G1 X88.431 Y36.738 E70.7495
G1 X88.817 Y36.583 E70.8359
G1 X89.510 Y36.392 E70.9854
G1 X90.071 Y36.313 E71.1031
G1 X90.528 Y36.292 E71.1982
G1 X94.563 Y36.295 E72.0370
G1 X95.162 Y36.340 E72.1619
G1 X95.956 Y36.469 E72.3291
G1 X96.951 Y36.444 E72.5360
G1 X100.986 Y36.447 E73.3748
G1 X101.402 Y36.471 E73.4614
G1 X101.965 Y36.556 E73.5798
G1 X102.510 Y36.705 E73.6972
G1 X103.192 Y36.990 E73.8509
G1 X103.672 Y37.269 E73.9663
G1 X104.127 Y37.606 E74.0840
G1 X104.535 Y37.986 E74.1999
G1 X104.908 Y38.424 E74.3195
G1 X105.221 Y38.888 E74.4358
G1 X105.482 Y39.390 E74.5534
