;Sliced by ideaMaker 3.1.7.1850, 2018-08-21 13:07:30 UTC-0700
;Dimension: 305.000 305.000 605.000 0.400
;Extruder Offset #1: 0.000 0.000
;Filament Diameter #1: 1.750
;Filament Diameter #2: 1.750
;Filament Compensation #1: 90.00
;Filament Compensation #2: 90.00
;Filament Density #1: 1240.00
;Filament Density #2: 1240.00
;Model Gap: 0.000
M221 T1 S90.00
M140 S60.00
M104 T1 S195.00
M109 T1 S195.00
T1
M190 S60.00
G21
G90
M82
M107
G28 X0 Y0
G28 Z0
G1 Z15.0 F6000.0
G92 E0
G1 F140 E29
G1 X20 Y0 F140 E30
G92 E0
G1 F6000.0
M117 Printing...
M1001
;LAYER:0
;Z:0.300
;HEIGHT:0.300
M106 S0
G1 F1200 E-10.0000
T1
M204 S1000.00
G0 F6000 X86.956 Y68.577
G0 F1500 Z0.300
M204 S800.00
;TYPE:SKIRT
;WIDTH:0.500
G1 F1200 E0.0000
G1 F720 X94.862 Y60.658 E0.6978
G1 X95.146 Y60.455 E0.7196
G1 X95.285 Y60.389 E0.7292
G1 X95.534 Y60.316 E0.7454
G1 X95.675 Y60.296 E0.7543
G1 X144.053 Y60.295 E3.7713
G1 X144.237 Y60.323 E3.7829
G1 X144.481 Y60.403 E3.7989
G1 X144.710 Y60.533 E3.8153
G1 X144.816 Y60.614 E3.8236
G1 X152.737 Y68.519 E4.5215
G1 X152.940 Y68.803 E4.5433
G1 X153.006 Y68.942 E4.5529
G1 X153.079 Y69.191 E4.5690
G1 X153.099 Y69.332 E4.5779
G1 X153.104 Y127.748 E8.2209
G1 X153.048 Y128.087 E8.2423
G1 X152.992 Y128.240 E8.2525
G1 X152.862 Y128.469 E8.2689
G1 X152.781 Y128.575 E8.2772
G1 X145.425 Y135.945 E8.9266
G1 X145.141 Y136.148 E8.9484
G1 X145.002 Y136.214 E8.9580
G1 X144.753 Y136.287 E8.9742
G1 X144.612 Y136.307 E8.9830
G1 X95.197 Y136.312 E12.0647
G1 X94.858 Y136.256 E12.0861
G1 X94.705 Y136.200 E12.0963
G1 X94.476 Y136.070 E12.1127
G1 X94.370 Y135.989 E12.1210
G1 X87.000 Y128.633 E12.7704
G1 X86.797 Y128.349 E12.7922
G1 X86.731 Y128.210 E12.8018
G1 X86.658 Y127.961 E12.8179
G1 X86.638 Y127.820 E12.8268
G1 X86.633 Y69.404 E16.4698
G1 X86.689 Y69.065 E16.4912
G1 X86.745 Y68.912 E16.5014
G1 X86.875 Y68.683 E16.5178
G1 X86.956 Y68.577 E16.5261
M204 S1000.00
G0 F6000 X87.310 Y68.930
M204 S800.00
G1 F720 X95.216 Y61.011 E17.2240
G1 X95.426 Y60.869 E17.2398
G1 X95.675 Y60.796 E17.2560
G1 X143.989 Y60.791 E20.2690
G1 X144.113 Y60.807 E20.2768
G1 X144.234 Y60.838 E20.2845
G1 X144.463 Y60.968 E20.3010
G1 X152.384 Y68.873 E20.9989
G1 X152.526 Y69.083 E21.0147
G1 X152.599 Y69.332 E21.0308
G1 X152.604 Y127.748 E24.6738
G1 X152.557 Y127.993 E24.6894
G1 X152.427 Y128.222 E24.7058
G1 X145.071 Y135.592 E25.3552
G1 X144.861 Y135.734 E25.3710
G1 X144.612 Y135.807 E25.3872
G1 X95.197 Y135.812 E28.4688
G1 X94.952 Y135.765 E28.4844
G1 X94.723 Y135.635 E28.5008
G1 X87.353 Y128.279 E29.1502
G1 X87.211 Y128.069 E29.1660
G1 X87.138 Y127.820 E29.1822
G1 X87.133 Y69.404 E32.8252
G1 X87.180 Y69.159 E32.8407
G1 X87.310 Y68.930 E32.8571
G1 F2400 E31.3571
M204 S1000.00
G0 F6000 X87.633 Y69.404
M204 S800.00
G1 F1500 E32.8571
G1 F720 X87.664 Y69.283 E32.8649
G1 X95.570 Y61.364 E33.5628
G1 X95.678 Y61.301 E33.5706
G1 X95.747 Y61.291 E33.5749
G1 X143.989 Y61.291 E36.5834
G1 X144.110 Y61.322 E36.5912
G1 X152.031 Y69.227 E37.2891
G1 X152.094 Y69.335 E37.2969
G1 X152.104 Y69.404 E37.3012
G1 X152.104 Y127.748 E40.9397
G1 X152.073 Y127.869 E40.9475
G1 X144.717 Y135.239 E41.5969
G1 X144.609 Y135.302 E41.6047
G1 X144.540 Y135.312 E41.6090
G1 X95.197 Y135.312 E44.6862
G1 X95.076 Y135.281 E44.6940
G1 X87.706 Y127.925 E45.3434
G1 X87.643 Y127.817 E45.3512
G1 X87.633 Y127.748 E45.3555
G1 X87.633 Y69.404 E48.9940
G1 F2400 E47.4940
M204 S1000.00
G0 F6000 X88.633 Y69.715
M204 S600.00
;TYPE:WALL-INNER
;WIDTH:0.500
G1 F1500 E48.9940
G1 F720 X96.058 Y62.291 E49.6488
G1 X143.678 Y62.291 E52.6185
G1 X151.104 Y69.715 E53.2733
G1 X151.104 Y127.437 E56.8731
G1 X144.229 Y134.312 E57.4794
G1 X95.508 Y134.312 E60.5178
G1 X88.633 Y127.437 E61.1241
G1 X88.633 Y69.715 E64.7238
G1 F2400 E63.2238
M204 S1000.00
G0 F6000 X93.033 Y71.538
M204 S600.00
G1 F1500 E64.7238
G1 F720 X93.033 Y125.614 E68.0961
G1 X97.330 Y129.912 E68.4751
G1 X142.406 Y129.912 E71.2862
G1 X146.704 Y125.614 E71.6653
G1 X146.704 Y71.538 E75.0376
G1 X142.956 Y67.791 E75.3681
G1 X96.780 Y67.791 E78.2478
G1 X93.033 Y71.538 E78.5782
G1 F2400 E77.0782
M204 S1000.00
G0 F6000 X93.533 Y71.745
M204 S500.00
;TYPE:WALL-OUTER
;WIDTH:0.500
G1 F1500 E78.5782
G1 F720 X93.533 Y125.407 E81.9247
G1 X97.537 Y129.412 E82.2779
G1 X142.199 Y129.412 E85.0632
G1 X146.204 Y125.407 E85.4164
G1 X146.204 Y71.745 E88.7629
G1 X142.749 Y68.291 E89.0676
G1 X96.987 Y68.291 E91.9214
G1 X93.533 Y71.745 E92.2260
G1 F2400 E90.7260
M204 S1000.00
G0 F6000 X88.133 Y69.507
M204 S500.00
G1 F1500 E92.2260
G1 F720 X95.850 Y61.791 E92.9066
G1 X143.886 Y61.791 E95.9022
G1 X151.604 Y69.507 E96.5828
G1 X151.604 Y127.645 E100.2085
G1 X144.437 Y134.812 E100.8406
G1 X95.300 Y134.812 E103.9049
G1 X88.133 Y127.645 E104.5370
G1 X88.133 Y69.507 E108.1626
G1 F2400 E106.6626
M204 S1000.00
G0 F6000 X143.354 Y62.390
M204 S800.00
;TYPE:SOLID-FILL
;WIDTH:0.500
G1 F1500 E108.1626
G1 F720 X151.003 Y70.039 E108.8372
G1 F2400 E107.3372
M204 S1000.00
G0 F6000 X151.003 Y70.746
M204 S800.00
G1 F1500 E108.8372
G1 F720 X142.647 Y62.390 E109.5742
G1 F2400 E108.0742
M204 S1000.00
G0 F6000 X141.940 Y62.390
M204 S800.00
G1 F1500 E109.5742
G1 F720 X151.003 Y71.453 E110.3735
G1 F2400 E108.8735
M204 S1000.00
G0 F6000 X151.003 Y72.160
M204 S800.00
G1 F1500 E110.3735
G1 F720 X141.233 Y62.390 E111.2351
G1 F2400 E109.7351
M204 S1000.00
G0 F6000 X140.526 Y62.390
M204 S800.00
G1 F1500 E111.2351
G1 F720 X151.003 Y72.868 E112.1592
G1 F2400 E110.6592
M204 S1000.00
G0 F6000 X151.003 Y73.575
M204 S800.00
G1 F1500 E112.1592
G1 F720 X139.819 Y62.390 E113.1456
G1 F2400 E111.6456
M204 S1000.00
G0 F6000 X139.111 Y62.390
M204 S800.00
G1 F1500 E113.1456
G1 F720 X151.003 Y74.282 E114.1944
G1 F2400 E112.6944
M204 S1000.00
G0 F6000 X151.003 Y74.989
M204 S800.00
G1 F1500 E114.1944
G1 F720 X138.404 Y62.390 E115.3055
G1 F2400 E113.8055
M204 S1000.00
G0 F6000 X137.697 Y62.390
M204 S800.00
G1 F1500 E115.3055
G1 F720 X151.003 Y75.696 E116.4791
G1 F2400 E114.9791
M204 S1000.00
G0 F6000 X151.003 Y76.403
M204 S800.00
G1 F1500 E116.4791
G1 F720 X146.803 Y72.203 E116.8495
G1 F2400 E115.3495
M204 S1000.00
G0 F6000 X146.803 Y72.910
M204 S800.00
G1 F1500 E116.8495
G1 F720 X151.003 Y77.110 E117.2199
G1 F2400 E115.7199
M204 S1000.00
G0 F6000 X151.003 Y77.817
M204 S800.00
G1 F1500 E117.2199
G1 F720 X146.803 Y73.617 E117.5903
G1 F2400 E116.0903
M204 S1000.00
G0 F6000 X146.803 Y74.324
M204 S800.00
G1 F1500 E117.5903
G1 F720 X151.003 Y78.524 E117.9607
G1 F2400 E116.4607
M204 S1000.00
G0 F6000 X151.003 Y79.232
M204 S800.00
G1 F1500 E117.9607
G1 F720 X146.803 Y75.031 E118.3312
G1 F2400 E116.8312
M204 S1000.00
G0 F6000 X146.803 Y75.738
M204 S800.00
G1 F1500 E118.3312
G1 F720 X151.003 Y79.939 E118.7017
G1 F2400 E117.2017
M204 S1000.00
G0 F6000 X151.003 Y80.646
M204 S800.00
G1 F1500 E118.7017
G1 F720 X146.803 Y76.446 E119.0721
G1 F2400 E117.5721
M204 S1000.00
G0 F6000 X146.803 Y77.153
M204 S800.00
G1 F1500 E119.0721
G1 F720 X151.003 Y81.353 E119.4425
G1 F2400 E117.9425
M204 S1000.00
G0 F6000 X151.003 Y82.060
M204 S800.00
G1 F1500 E119.4425
G1 F720 X146.803 Y77.860 E119.8129
G1 F2400 E118.3129
M204 S1000.00
G0 F6000 X146.803 Y78.567
M204 S800.00
G1 F1500 E119.8129
G1 F720 X151.003 Y82.767 E120.1833
G1 F2400 E118.6833
M204 S1000.00
G0 F6000 X151.003 Y83.474
M204 S800.00
G1 F1500 E120.1833
G1 F720 X146.803 Y79.274 E120.5537
G1 F2400 E119.0537
M204 S1000.00
G0 F6000 X146.803 Y79.981
M204 S800.00
G1 F1500 E120.5537
G1 F720 X151.003 Y84.181 E120.9241
G1 F2400 E119.4241
M204 S1000.00
G0 F6000 X151.003 Y84.888
M204 S800.00
G1 F1500 E120.9241
G1 F720 X146.803 Y80.688 E121.2946
G1 F2400 E119.7946
M204 S1000.00
G0 F6000 X146.803 Y81.395
M204 S800.00
G1 F1500 E121.2946
G1 F720 X151.003 Y85.595 E121.6650
G1 F2400 E120.1650
M204 S1000.00
G0 F6000 X151.003 Y86.303
M204 S800.00
G1 F1500 E121.6650
G1 F720 X146.803 Y82.102 E122.0354
G1 F2400 E120.5354
M204 S1000.00
G0 F6000 X146.803 Y82.809
M204 S800.00
G1 F1500 E122.0354
G1 F720 X151.003 Y87.010 E122.4059
G1 F2400 E120.9059
M204 S1000.00
G0 F6000 X151.003 Y87.717
M204 S800.00
G1 F1500 E122.4059
G1 F720 X146.803 Y83.517 E122.7763
G1 F2400 E121.2763
M204 S1000.00
G0 F6000 X146.803 Y84.224
M204 S800.00
G1 F1500 E122.7763
G1 F720 X151.003 Y88.424 E123.1467
G1 F2400 E121.6467
M204 S1000.00
G0 F6000 X151.003 Y89.131
M204 S800.00
G1 F1500 E123.1467
G1 F720 X146.803 Y84.931 E123.5171
G1 F2400 E122.0171
M204 S1000.00
G0 F6000 X146.803 Y85.638
M204 S800.00
G1 F1500 E123.5171
G1 F720 X151.003 Y89.838 E123.8876
G1 F2400 E122.3876
M204 S1000.00
G0 F6000 X151.003 Y90.545
M204 S800.00
G1 F1500 E123.8876
G1 F720 X146.803 Y86.345 E124.2580
G1 F2400 E122.7580
M204 S1000.00
G0 F6000 X146.803 Y87.052
M204 S800.00
G1 F1500 E124.2580
G1 F720 X151.003 Y91.252 E124.6284
G1 F2400 E123.1284
M204 S1000.00
G0 F6000 X151.003 Y91.959
M204 S800.00
G1 F1500 E124.6284
G1 F720 X146.803 Y87.759 E124.9988
G1 F2400 E123.4988
M204 S1000.00
G0 F6000 X146.803 Y88.466
M204 S800.00
G1 F1500 E124.9988
G1 F720 X151.003 Y92.667 E125.3693
G1 F2400 E123.8693
M204 S1000.00
G0 F6000 X151.003 Y93.374
M204 S800.00
G1 F1500 E125.3693
G1 F720 X146.803 Y89.173 E125.7397
G1 F2400 E124.2397
M204 S1000.00
G0 F6000 X146.803 Y89.881
M204 S800.00
G1 F1500 E125.7397
G1 F720 X151.003 Y94.081 E126.1101
G1 F2400 E124.6101
M204 S1000.00
G0 F6000 X151.003 Y94.788
M204 S800.00
G1 F1500 E126.1101
G1 F720 X146.803 Y90.588 E126.4806
G1 F2400 E124.9806
M204 S1000.00
G0 F6000 X146.803 Y91.295
M204 S800.00
G1 F1500 E126.4806
G1 F720 X151.003 Y95.495 E126.8510
G1 F2400 E125.3510
M204 S1000.00
G0 F6000 X151.003 Y96.202
M204 S800.00
G1 F1500 E126.8510
G1 F720 X146.803 Y92.002 E127.2214
G1 F2400 E125.7214
M204 S1000.00
G0 F6000 X146.803 Y92.709
M204 S800.00
G1 F1500 E127.2214
G1 F720 X151.003 Y96.909 E127.5918
G1 F2400 E126.0918
M204 S1000.00
G0 F6000 X151.003 Y97.616
M204 S800.00
G1 F1500 E127.5918
G1 F720 X146.803 Y93.416 E127.9622
G1 F2400 E126.4622
M204 S1000.00
G0 F6000 X146.803 Y94.123
M204 S800.00
G1 F1500 E127.9622
G1 F720 X151.003 Y98.323 E128.3326
G1 F2400 E126.8326
M204 S1000.00
G0 F6000 X151.003 Y99.031
M204 S800.00
G1 F1500 E128.3326
G1 F720 X146.803 Y94.830 E128.7031
G1 F2400 E127.2031
M204 S1000.00
G0 F6000 X146.803 Y95.537
M204 S800.00
G1 F1500 E128.7031
G1 F720 X151.003 Y99.738 E129.0736
G1 F2400 E127.5736
M204 S1000.00
G0 F6000 X151.003 Y100.445
M204 S800.00
G1 F1500 E129.0736
G1 F720 X146.803 Y96.245 E129.4440
G1 F2400 E127.9440
M204 S1000.00
G0 F6000 X146.803 Y96.952
M204 S800.00
G1 F1500 E129.4440
G1 F720 X151.003 Y101.152 E129.8144
G1 F2400 E128.3144
M204 S1000.00
G0 F6000 X151.003 Y101.859
M204 S800.00
G1 F1500 E129.8144
G1 F720 X146.803 Y97.659 E130.1848
G1 F2400 E128.6848
M204 S1000.00
G0 F6000 X146.803 Y98.366
M204 S800.00
G1 F1500 E130.1848
G1 F720 X151.003 Y102.566 E130.5552
G1 F2400 E129.0552
M204 S1000.00
G0 F6000 X151.003 Y103.273
M204 S800.00
G1 F1500 E130.5552
G1 F720 X146.803 Y99.073 E130.9256
G1 F2400 E129.4256
M204 S1000.00
G0 F6000 X146.803 Y99.780
M204 S800.00
G1 F1500 E130.9256
G1 F720 X151.003 Y103.980 E131.2961
G1 F2400 E129.7961
M204 S1000.00
G0 F6000 X151.003 Y104.687
M204 S800.00
G1 F1500 E131.2961
G1 F720 X146.803 Y100.487 E131.6665
G1 F2400 E130.1665
M204 S1000.00
G0 F6000 X146.803 Y101.194
M204 S800.00
G1 F1500 E131.6665
G1 F720 X151.003 Y105.394 E132.0369
G1 F2400 E130.5369
M204 S1000.00
G0 F6000 X151.003 Y106.102
M204 S800.00
G1 F1500 E132.0369
G1 F720 X146.803 Y101.901 E132.4073
G1 F2400 E130.9073
M204 S1000.00
G0 F6000 X146.803 Y102.608
M204 S800.00
G1 F1500 E132.4073
G1 F720 X151.003 Y106.809 E132.7778
G1 F2400 E131.2778
M204 S1000.00
G0 F6000 X151.003 Y107.516
M204 S800.00
G1 F1500 E132.7778
G1 F720 X146.803 Y103.316 E133.1482
G1 F2400 E131.6482
M204 S1000.00
G0 F6000 X146.803 Y104.023
M204 S800.00
G1 F1500 E133.1482
G1 F720 X151.003 Y108.223 E133.5186
G1 F2400 E132.0186
M204 S1000.00
G0 F6000 X151.003 Y108.930
M204 S800.00
G1 F1500 E133.5186
G1 F720 X146.803 Y104.730 E133.8891
G1 F2400 E132.3891
M204 S1000.00
G0 F6000 X146.803 Y105.437
M204 S800.00
G1 F1500 E133.8891
G1 F720 X151.003 Y109.637 E134.2595
G1 F2400 E132.7595
M204 S1000.00
G0 F6000 X151.003 Y110.344
M204 S800.00
G1 F1500 E134.2595
G1 F720 X146.803 Y106.144 E134.6299
G1 F2400 E133.1299
M204 S1000.00
G0 F6000 X146.803 Y106.851
M204 S800.00
G1 F1500 E134.6299
G1 F720 X151.003 Y111.051 E135.0003
G1 F2400 E133.5003
M204 S1000.00
G0 F6000 X151.003 Y111.758
M204 S800.00
G1 F1500 E135.0003
G1 F720 X146.803 Y107.558 E135.3707
G1 F2400 E133.8707
M204 S1000.00
G0 F6000 X146.803 Y108.265
M204 S800.00
G1 F1500 E135.3707
G1 F720 X151.003 Y112.466 E135.7412
G1 F2400 E134.2412
M204 S1000.00
G0 F6000 X151.003 Y113.173
M204 S800.00
G1 F1500 E135.7412
G1 F720 X146.803 Y108.972 E136.1116
G1 F2400 E134.6116
M204 S1000.00
G0 F6000 X146.803 Y109.680
M204 S800.00
G1 F1500 E136.1116
G1 F720 X151.003 Y113.880 E136.4821
G1 F2400 E134.9821
M204 S1000.00
G0 F6000 X151.003 Y114.587
M204 S800.00
G1 F1500 E136.4821
G1 F720 X146.803 Y110.387 E136.8525
G1 F2400 E135.3525
M204 S1000.00
G0 F6000 X146.803 Y111.094
M204 S800.00
G1 F1500 E136.8525
G1 F720 X151.003 Y115.294 E137.2229
G1 F2400 E135.7229
M204 S1000.00
G0 F6000 X151.003 Y116.001
M204 S800.00
G1 F1500 E137.2229
G1 F720 X146.803 Y111.801 E137.5933
G1 F2400 E136.0933
M204 S1000.00
G0 F6000 X146.803 Y112.508
M204 S800.00
G1 F1500 E137.5933
G1 F720 X151.003 Y116.708 E137.9637
G1 F2400 E136.4637
M204 S1000.00
G0 F6000 X151.003 Y117.415
M204 S800.00
G1 F1500 E137.9637
G1 F720 X146.803 Y113.215 E138.3341
G1 F2400 E136.8341
M204 S1000.00
G0 F6000 X146.803 Y113.922
M204 S800.00
G1 F1500 E138.3341
G1 F720 X151.003 Y118.122 E138.7045
G1 F2400 E137.2045
M204 S1000.00
G0 F6000 X151.003 Y118.830
M204 S800.00
G1 F1500 E138.7045
G1 F720 X146.803 Y114.629 E139.0750
G1 F2400 E137.5750
M204 S1000.00
G0 F6000 X146.803 Y115.336
M204 S800.00
G1 F1500 E139.0750
G1 F720 X151.003 Y119.537 E139.4455
G1 F2400 E137.9455
M204 S1000.00
G0 F6000 X151.003 Y120.244
M204 S800.00
G1 F1500 E139.4455
G1 F720 X146.803 Y116.044 E139.8159
G1 F2400 E138.3159
M204 S1000.00
G0 F6000 X146.803 Y116.751
M204 S800.00
G1 F1500 E139.8159
G1 F720 X151.003 Y120.951 E140.1863
G1 F2400 E138.6863
M204 S1000.00
G0 F6000 X151.003 Y121.658
M204 S800.00
G1 F1500 E140.1863
G1 F720 X146.803 Y117.458 E140.5567
G1 F2400 E139.0567
M204 S1000.00
G0 F6000 X146.803 Y118.165
M204 S800.00
G1 F1500 E140.5567
G1 F720 X151.003 Y122.365 E140.9271
G1 F2400 E139.4271
M204 S1000.00
G0 F6000 X151.003 Y123.072
M204 S800.00
G1 F1500 E140.9271
G1 F720 X146.803 Y118.872 E141.2975
G1 F2400 E139.7975
M204 S1000.00
G0 F6000 X146.803 Y119.579
M204 S800.00
G1 F1500 E141.2975
G1 F720 X151.003 Y123.779 E141.6680
G1 F2400 E140.1680
M204 S1000.00
G0 F6000 X151.003 Y124.486
M204 S800.00
G1 F1500 E141.6680
G1 F720 X146.803 Y120.286 E142.0384
G1 F2400 E140.5384
M204 S1000.00
G0 F6000 X146.803 Y120.993
M204 S800.00
G1 F1500 E142.0384
G1 F720 X151.003 Y125.193 E142.4088
G1 F2400 E140.9088
M204 S1000.00
G0 F6000 X151.003 Y125.901
M204 S800.00
G1 F1500 E142.4088
G1 F720 X146.803 Y121.700 E142.7793
G1 F2400 E141.2793
M204 S1000.00
G0 F6000 X146.803 Y122.407
M204 S800.00
G1 F1500 E142.7793
G1 F720 X151.003 Y126.608 E143.1497
G1 F2400 E141.6497
M204 S1000.00
G0 F6000 X151.003 Y127.315
M204 S800.00
G1 F1500 E143.1497
G1 F720 X146.803 Y123.115 E143.5201
G1 F2400 E142.0201
M204 S1000.00
G0 F6000 X146.803 Y123.822
M204 S800.00
G1 F1500 E143.5201
G1 F720 X150.690 Y127.709 E143.8629
M204 S1000.00
G0 F6000 X150.336 Y128.062
M204 S800.00
