;Sliced by ideaMaker 3.1.7.1850, 2018-08-21 15:01:45 UTC-0700
;Dimension: 305.000 305.000 605.000 0.400
;Extruder Offset #1: 0.000 0.000
;Filament Diameter #1: 1.750
;Filament Diameter #2: 1.750
;Filament Compensation #1: 90.00
;Filament Compensation #2: 90.00
;Filament Density #1: 1240.00
;Filament Density #2: 1240.00
;Model Gap: 0.200
M221 T1 S90.00
M140 S60.00
M104 T1 S195.00
M109 T1 S195.00
T1
M190 S60.00
G21
G90
M82
M107
G28 X0 Y0
G28 Z0
G1 Z15.0 F6000.0
G92 E0
G1 F140 E29
G1 X20 Y0 F140 E30
G92 E0
G1 F6000.0
M117 Printing...
M1001
M106 S0
;LAYER:-2
;Z:0.500
;HEIGHT:0.500
G1 F1200 E-10.0000
T1
M204 S1000.00
G0 F6000 X87.628 Y70.123
G0 F1500 Z0.500
;TYPE:SKIRT
;WIDTH:0.500
G1 F1200 E0.0000
G1 F720 X88.196 Y69.537 E0.0848
G1 X88.924 Y68.942 E0.1825
G1 X89.557 Y68.530 E0.2610
G1 X90.335 Y68.133 E0.3518
G1 X91.206 Y67.810 E0.4484
G1 X92.032 Y67.606 E0.5368
G1 X92.705 Y67.510 E0.6075
G1 X93.295 Y67.473 E0.6689
G1 X133.647 Y67.474 E4.8630
G1 X134.303 Y67.520 E4.9314
G1 X134.907 Y67.610 E4.9948
G1 X136.327 Y68.025 E5.1486
G1 X137.022 Y68.343 E5.2281
G1 X137.669 Y68.720 E5.3059
G1 X138.397 Y69.252 E5.3996
G1 X138.794 Y69.604 E5.4547
G1 X139.507 Y70.382 E5.5644
G1 X139.888 Y70.902 E5.6314
G1 X140.553 Y72.114 E5.7751
G1 X140.811 Y72.783 E5.8497
G1 X140.982 Y73.385 E5.9147
G1 X141.178 Y74.626 E6.0453
G1 X141.209 Y75.260 E6.1113
G1 X141.207 Y83.970 E7.0166
G1 X141.157 Y84.803 E7.1033
G1 X141.067 Y85.412 E7.1673
G1 X140.807 Y86.412 E7.2747
G1 X140.553 Y87.072 E7.3482
G1 X139.991 Y88.118 E7.4716
G1 X139.318 Y89.031 E7.5895
G1 X138.252 Y90.157 E7.7506
G1 X138.230 Y90.214 E7.7570
G1 X138.209 Y90.425 E7.7790
G1 X138.219 Y113.693 E10.1975
G1 X138.249 Y113.766 E10.2057
G1 X138.389 Y113.937 E10.2286
G1 X138.997 Y114.550 E10.3184
G1 X139.550 Y115.185 E10.4059
G1 X140.015 Y115.847 E10.4900
G1 X140.420 Y116.581 E10.5771
G1 X140.806 Y117.521 E10.6827
G1 X141.006 Y118.237 E10.7600
G1 X141.163 Y119.184 E10.8598
G1 X141.207 Y119.939 E10.9384
G1 X141.209 Y128.663 E11.8451
G1 X141.168 Y129.428 E11.9248
G1 X141.013 Y130.412 E12.0283
G1 X140.730 Y131.372 E12.1323
G1 X140.333 Y132.278 E12.2351
G1 X139.898 Y133.015 E12.3241
G1 X139.290 Y133.811 E12.4282
G1 X138.722 Y134.397 E12.5130
G1 X137.992 Y134.993 E12.6110
G1 X137.263 Y135.460 E12.7010
G1 X136.529 Y135.824 E12.7861
G1 X135.658 Y136.141 E12.8824
G1 X134.838 Y136.337 E12.9701
G1 X134.208 Y136.424 E13.0362
G1 X133.539 Y136.464 E13.1058
G1 X93.220 Y136.459 E17.2965
G1 X92.613 Y136.414 E17.3598
G1 X92.011 Y136.324 E17.4230
G1 X91.114 Y136.095 E17.5193
G1 X90.034 Y135.658 E17.6404
G1 X89.168 Y135.161 E17.7441
G1 X88.456 Y134.627 E17.8366
G1 X87.780 Y133.981 E17.9338
G1 X87.183 Y133.250 E18.0319
G1 X86.715 Y132.519 E18.1221
G1 X86.329 Y131.733 E18.2132
G1 X86.033 Y130.911 E18.3040
G1 X85.838 Y130.093 E18.3914
G1 X85.751 Y129.454 E18.4584
G1 X85.711 Y128.765 E18.5301
G1 X85.711 Y119.953 E19.4460
G1 X85.762 Y119.128 E19.5319
G1 X85.885 Y118.359 E19.6129
G1 X86.097 Y117.570 E19.6978
G1 X86.363 Y116.870 E19.7756
G1 X86.927 Y115.817 E19.8998
G1 X87.600 Y114.903 E20.0178
G1 X88.646 Y113.798 E20.1759
G1 X88.688 Y113.706 E20.1864
G1 X88.709 Y113.498 E20.2082
G1 X88.699 Y90.243 E22.6252
G1 X88.669 Y90.169 E22.6335
G1 X88.529 Y89.997 E22.6566
G1 X87.935 Y89.399 E22.7442
G1 X87.368 Y88.748 E22.8339
G1 X86.900 Y88.084 E22.9184
G1 X86.503 Y87.364 E23.0038
G1 X86.110 Y86.402 E23.1118
G1 X85.912 Y85.692 E23.1884
G1 X85.756 Y84.753 E23.2874
G1 X85.712 Y84.026 E23.3631
G1 X85.710 Y75.246 E24.2756
G1 X85.750 Y74.506 E24.3527
G1 X85.905 Y73.522 E24.4562
G1 X86.187 Y72.564 E24.5600
G1 X86.528 Y71.768 E24.6500
G1 X86.984 Y70.973 E24.7453
G1 X87.628 Y70.123 E24.8561
G0 F6000 X87.987 Y70.471
G1 F720 X88.555 Y69.885 E24.9409
G1 X89.197 Y69.361 E25.0271
G1 X89.830 Y68.949 E25.1056
G1 X90.561 Y68.579 E25.1907
G1 X91.378 Y68.279 E25.2812
G1 X92.150 Y68.092 E25.3637
G1 X92.737 Y68.009 E25.4254
G1 X93.295 Y67.973 E25.4835
G1 X133.613 Y67.973 E29.6741
G1 X134.229 Y68.015 E29.7382
G1 X134.833 Y68.105 E29.8017
G1 X136.120 Y68.480 E29.9410
G1 X136.772 Y68.776 E30.0155
G1 X137.375 Y69.124 E30.0878
G1 X138.065 Y69.626 E30.1765
G1 X138.462 Y69.978 E30.2317
G1 X139.104 Y70.678 E30.3304
G1 X139.485 Y71.198 E30.3974
G1 X140.114 Y72.353 E30.5341
G1 X140.330 Y72.920 E30.5971
G1 X140.501 Y73.522 E30.6622
G1 X140.684 Y74.703 E30.7864
G1 X140.709 Y75.260 E30.8444
G1 X140.708 Y83.941 E31.7466
G1 X140.662 Y84.730 E31.8288
G1 X140.572 Y85.339 E31.8928
G1 X140.340 Y86.232 E31.9887
G1 X140.086 Y86.892 E32.0622
G1 X139.551 Y87.880 E32.1789
G1 X138.955 Y88.687 E32.2832
G1 X137.853 Y89.851 E32.4498
G1 X137.806 Y89.924 E32.4589
G1 X137.740 Y90.097 E32.4781
G1 X137.709 Y90.405 E32.5103
G1 X137.709 Y113.558 E34.9167
G1 X137.723 Y113.764 E34.9382
G1 X137.747 Y113.868 E34.9493
G1 X137.820 Y114.030 E34.9678
G1 X138.019 Y114.274 E35.0005
G1 X138.621 Y114.880 E35.0893
G1 X139.142 Y115.474 E35.1714
G1 X139.578 Y116.090 E35.2498
G1 X139.958 Y116.772 E35.3310
G1 X140.324 Y117.656 E35.4304
G1 X140.524 Y118.372 E35.5077
G1 X140.669 Y119.264 E35.6016
G1 X140.707 Y119.939 E35.6719
G1 X140.709 Y128.663 E36.5787
G1 X140.674 Y129.352 E36.6504
G1 X140.533 Y130.272 E36.7471
G1 X140.271 Y131.173 E36.8446
G1 X139.902 Y132.024 E36.9410
G1 X139.467 Y132.761 E37.0300
G1 X138.931 Y133.463 E37.1218
G1 X138.363 Y134.049 E37.2066
G1 X137.721 Y134.573 E37.2927
G1 X137.039 Y135.013 E37.3771
G1 X136.357 Y135.355 E37.4564
G1 X135.540 Y135.655 E37.5469
G1 X134.768 Y135.842 E37.6294
G1 X134.177 Y135.925 E37.6914
G1 X133.539 Y135.964 E37.7579
G1 X93.256 Y135.960 E41.9448
G1 X92.687 Y135.919 E42.0041
G1 X92.085 Y135.829 E42.0674
G1 X91.239 Y135.611 E42.1582
G1 X90.283 Y135.224 E42.2654
G1 X89.417 Y134.727 E42.3692
G1 X88.758 Y134.228 E42.4551
G1 X88.127 Y133.621 E42.5461
G1 X87.603 Y132.979 E42.6322
G1 X87.163 Y132.297 E42.7166
G1 X86.799 Y131.562 E42.8018
G1 X86.519 Y130.793 E42.8869
G1 X86.333 Y130.024 E42.9691
G1 X86.250 Y129.424 E43.0321
G1 X86.211 Y128.765 E43.1007
G1 X86.210 Y119.983 E44.0135
G1 X86.256 Y119.205 E44.0945
G1 X86.368 Y118.489 E44.1698
G1 X86.580 Y117.700 E44.2547
G1 X86.830 Y117.049 E44.3272
G1 X87.367 Y116.054 E44.4447
G1 X87.963 Y115.247 E44.5490
G1 X89.065 Y114.083 E44.7156
G1 X89.178 Y113.837 E44.7437
G1 X89.209 Y113.528 E44.7760
G1 X89.209 Y90.374 E47.1826
G1 X89.195 Y90.170 E47.2038
G1 X89.170 Y90.062 E47.2154
G1 X89.098 Y89.904 E47.2334
G1 X88.899 Y89.660 E47.2661
G1 X88.290 Y89.047 E47.3559
G1 X87.776 Y88.459 E47.4371
G1 X87.337 Y87.840 E47.5160
G1 X86.965 Y87.173 E47.5954
G1 X86.592 Y86.268 E47.6971
G1 X86.394 Y85.558 E47.7737
G1 X86.255 Y84.722 E47.8618
G1 X86.212 Y84.026 E47.9343
G1 X86.209 Y75.271 E48.8443
G1 X86.244 Y74.582 E48.9160
G1 X86.385 Y73.662 E49.0127
G1 X86.647 Y72.761 E49.1102
G1 X86.988 Y71.965 E49.2002
G1 X87.417 Y71.223 E49.2893
G1 X87.987 Y70.471 E49.3874
G1 F2400 E47.8874
G0 F6000 X88.347 Y70.818
G1 F1500 E49.3874
G1 F720 X88.873 Y70.271 E49.4663
G1 X89.470 Y69.780 E49.5466
G1 X90.103 Y69.368 E49.6251
G1 X90.785 Y69.026 E49.7044
G1 X91.497 Y68.765 E49.7832
G1 X92.221 Y68.587 E49.8607
G1 X92.770 Y68.508 E49.9184
G1 X93.295 Y68.473 E49.9731
G1 X133.579 Y68.472 E54.1601
G1 X134.195 Y68.514 E54.2243
G1 X134.758 Y68.599 E54.2835
G1 X135.915 Y68.936 E54.4087
G1 X136.522 Y69.209 E54.4779
G1 X137.125 Y69.557 E54.5503
G1 X137.733 Y70.000 E54.6284
G1 X138.130 Y70.352 E54.6836
G1 X138.701 Y70.974 E54.7714
G1 X139.082 Y71.494 E54.8384
G1 X139.647 Y72.533 E54.9613
G1 X139.849 Y73.057 E55.0196
G1 X140.020 Y73.659 E55.0847
G1 X140.185 Y74.725 E55.1968
G1 X140.209 Y75.260 E55.2525
G1 X140.209 Y83.913 E56.1519
G1 X140.167 Y84.657 E56.2293
G1 X140.077 Y85.266 E56.2933
G1 X139.856 Y86.105 E56.3835
G1 X139.620 Y86.710 E56.4510
G1 X139.112 Y87.641 E56.5612
G1 X138.592 Y88.343 E56.6520
G1 X137.457 Y89.541 E56.8235
G1 X137.362 Y89.692 E56.8421
G1 X137.288 Y89.857 E56.8609
G1 X137.246 Y90.005 E56.8769
G1 X137.209 Y90.375 E56.9155
G1 X137.209 Y113.581 E59.3275
G1 X137.227 Y113.837 E59.3542
G1 X137.266 Y114.010 E59.3726
G1 X137.334 Y114.188 E59.3924
G1 X137.404 Y114.311 E59.4071
G1 X137.649 Y114.611 E59.4474
G1 X138.246 Y115.211 E59.5353
G1 X138.735 Y115.765 E59.6121
G1 X139.142 Y116.335 E59.6849
G1 X139.497 Y116.965 E59.7601
G1 X139.842 Y117.791 E59.8531
G1 X140.042 Y118.507 E59.9304
G1 X140.170 Y119.293 E60.0132
G1 X140.207 Y119.939 E60.0804
G1 X140.209 Y128.663 E60.9872
G1 X140.175 Y129.326 E61.0562
G1 X140.052 Y130.134 E61.1411
G1 X139.811 Y130.976 E61.2322
G1 X139.470 Y131.772 E61.3222
G1 X139.069 Y132.459 E61.4049
G1 X138.571 Y133.116 E61.4905
G1 X138.045 Y133.663 E61.5694
G1 X137.448 Y134.154 E61.6498
G1 X136.815 Y134.566 E61.7283
G1 X136.133 Y134.908 E61.8076
G1 X135.421 Y135.169 E61.8864
G1 X134.697 Y135.347 E61.9639
G1 X134.146 Y135.426 E62.0217
G1 X133.539 Y135.464 E62.0849
G1 X93.292 Y135.461 E66.2681
G1 X92.723 Y135.420 E66.3274
G1 X92.160 Y135.335 E66.3866
G1 X91.424 Y135.146 E66.4656
G1 X90.530 Y134.790 E66.5656
G1 X89.719 Y134.328 E66.6626
G1 X89.060 Y133.829 E66.7485
G1 X88.513 Y133.303 E66.8274
G1 X88.022 Y132.706 E66.9078
G1 X87.610 Y132.073 E66.9863
G1 X87.268 Y131.390 E67.0656
G1 X87.005 Y130.673 E67.1450
G1 X86.828 Y129.954 E67.2220
G1 X86.749 Y129.394 E67.2808
G1 X86.711 Y128.765 E67.3463
G1 X86.710 Y119.983 E68.2590
G1 X86.750 Y119.280 E68.3322
G1 X86.851 Y118.617 E68.4019
G1 X87.047 Y117.879 E68.4813
G1 X87.297 Y117.228 E68.5538
G1 X87.806 Y116.293 E68.6644
G1 X88.326 Y115.591 E68.7552
G1 X89.461 Y114.393 E68.9268
G1 X89.556 Y114.242 E68.9453
G1 X89.630 Y114.077 E68.9641
G1 X89.672 Y113.929 E68.9801
G1 X89.709 Y113.558 E69.0188
G1 X89.709 Y90.353 E71.4307
G1 X89.691 Y90.097 E71.4574
G1 X89.652 Y89.924 E71.4758
G1 X89.584 Y89.746 E71.4956
G1 X89.514 Y89.623 E71.5103
G1 X89.269 Y89.323 E71.5506
G1 X88.665 Y88.716 E71.6396
G1 X88.183 Y88.169 E71.7154
G1 X87.774 Y87.596 E71.7886
G1 X87.402 Y86.929 E71.8679
G1 X87.074 Y86.134 E71.9573
G1 X86.876 Y85.424 E72.0339
G1 X86.748 Y84.641 E72.1164
G1 X86.711 Y83.997 E72.1834
G1 X86.709 Y75.271 E73.0904
G1 X86.743 Y74.608 E73.1594
G1 X86.866 Y73.800 E73.2444
G1 X87.107 Y72.958 E73.3354
G1 X87.448 Y72.162 E73.4254
G1 X87.849 Y71.475 E73.5081
G1 X88.347 Y70.818 E73.5938
G1 F2400 E72.0938
G0 F6000 X88.709 Y71.163
G1 F1500 E73.5938
G1 F720 X89.193 Y70.656 E73.6666
G1 X89.744 Y70.198 E73.7411
G1 X90.329 Y69.814 E73.8138
G1 X90.959 Y69.495 E73.8872
G1 X91.618 Y69.250 E73.9603
G1 X92.294 Y69.082 E74.0327
G1 X92.803 Y69.007 E74.0862
G1 X93.328 Y68.972 E74.1409
G1 X133.547 Y68.971 E78.3211
G1 X134.120 Y69.008 E78.3808
G1 X134.683 Y69.093 E78.4400
G1 X135.712 Y69.393 E78.5514
G1 X136.272 Y69.642 E78.6151
G1 X136.875 Y69.990 E78.6875
G1 X137.437 Y70.403 E78.7599
G1 X137.797 Y70.725 E78.8102
G1 X138.298 Y71.270 E78.8871
G1 X138.679 Y71.790 E78.9541
G1 X139.180 Y72.713 E79.0633
G1 X139.382 Y73.237 E79.1216
G1 X139.526 Y73.737 E79.1757
G1 X139.686 Y74.747 E79.2820
G1 X139.709 Y75.260 E79.3354
G1 X139.709 Y83.913 E80.2347
G1 X139.668 Y84.628 E80.3092
G1 X139.583 Y85.191 E80.3684
G1 X139.390 Y85.923 E80.4470
G1 X139.154 Y86.528 E80.5145
G1 X138.674 Y87.400 E80.6180
G1 X138.222 Y88.006 E80.6966
G1 X137.833 Y88.433 E80.7566
G1 X137.257 Y89.009 E80.8413
G1 X137.057 Y89.240 E80.8730
G1 X136.919 Y89.458 E80.8998
G1 X136.817 Y89.685 E80.9257
G1 X136.752 Y89.915 E80.9506
G1 X136.709 Y90.345 E80.9955
G1 X136.709 Y113.603 E83.4129
G1 X136.731 Y113.910 E83.4449
G1 X136.786 Y114.154 E83.4708
G1 X136.879 Y114.397 E83.4979
G1 X136.991 Y114.597 E83.5217
G1 X137.275 Y114.944 E83.5683
G1 X137.872 Y115.543 E83.6562
G1 X138.329 Y116.058 E83.7278
G1 X138.707 Y116.582 E83.7949
G1 X139.036 Y117.160 E83.8641
G1 X139.360 Y117.926 E83.9505
G1 X139.560 Y118.642 E84.0278
G1 X139.671 Y119.322 E84.0994
G1 X139.708 Y119.968 E84.1667
G1 X139.709 Y128.663 E85.0704
G1 X139.676 Y129.300 E85.1367
G1 X139.571 Y129.999 E85.2102
G1 X139.351 Y130.781 E85.2946
G1 X139.038 Y131.520 E85.3780
G1 X138.637 Y132.207 E85.4607
G1 X138.209 Y132.771 E85.5343
G1 X137.725 Y133.278 E85.6071
G1 X137.174 Y133.736 E85.6816
G1 X136.589 Y134.120 E85.7543
G1 X135.959 Y134.439 E85.8277
G1 X135.300 Y134.684 E85.9008
G1 X134.624 Y134.852 E85.9732
G1 X134.114 Y134.927 E86.0268
G1 X133.539 Y134.964 E86.0867
G1 X93.326 Y134.962 E90.2663
G1 X92.798 Y134.926 E90.3213
G1 X92.235 Y134.841 E90.3805
G1 X91.550 Y134.662 E90.4541
G1 X90.717 Y134.326 E90.5475
G1 X89.969 Y133.895 E90.6372
G1 X89.405 Y133.467 E90.7108
G1 X88.898 Y132.983 E90.7836
G1 X88.440 Y132.432 E90.8581
G1 X88.056 Y131.847 E90.9308
G1 X87.737 Y131.216 E91.0043
G1 X87.490 Y130.552 E91.0780
G1 X87.323 Y129.882 E91.1497
G1 X87.248 Y129.363 E91.2042
G1 X87.211 Y128.765 E91.2665
G1 X87.210 Y119.983 E92.1793
G1 X87.245 Y119.353 E92.2449
G1 X87.335 Y118.743 E92.3090
G1 X87.514 Y118.058 E92.3826
G1 X87.764 Y117.407 E92.4550
G1 X88.244 Y116.534 E92.5586
G1 X88.696 Y115.928 E92.6372
G1 X89.085 Y115.501 E92.6972
G1 X89.662 Y114.924 E92.7820
G1 X89.861 Y114.694 E92.8136
G1 X89.999 Y114.476 E92.8404
G1 X90.101 Y114.249 E92.8663
G1 X90.166 Y114.019 E92.8911
G1 X90.209 Y113.588 E92.9362
G1 X90.209 Y90.331 E95.3534
G1 X90.187 Y90.024 E95.3854
G1 X90.132 Y89.780 E95.4114
G1 X90.039 Y89.537 E95.4385
G1 X89.927 Y89.337 E95.4623
G1 X89.643 Y88.990 E95.5089
G1 X89.039 Y88.384 E95.5978
G1 X88.589 Y87.876 E95.6684
G1 X88.211 Y87.352 E95.7355
G1 X87.839 Y86.685 E95.8149
G1 X87.537 Y85.945 E95.8980
G1 X87.358 Y85.292 E95.9684
G1 X87.247 Y84.612 E96.0400
G1 X87.210 Y83.968 E96.1070
G1 X87.209 Y75.271 E97.0110
G1 X87.242 Y74.634 E97.0773
G1 X87.347 Y73.935 E97.1507
G1 X87.567 Y73.153 E97.2352
G1 X87.880 Y72.414 E97.3186
G1 X88.281 Y71.727 E97.4013
G1 X88.709 Y71.163 E97.4749
G1 F2400 E95.9749
G0 F6000 X89.072 Y71.507
G1 F1500 E97.4749
G1 F720 X89.515 Y71.039 E97.5418
G1 X90.020 Y70.615 E97.6104
G1 X90.557 Y70.259 E97.6773
G1 X91.135 Y69.963 E97.7448
G1 X91.741 Y69.735 E97.8121
G1 X92.368 Y69.576 E97.8794
G1 X92.836 Y69.506 E97.9285
G1 X93.361 Y69.471 E97.9832
G1 X133.517 Y69.470 E102.1570
G1 X134.045 Y69.502 E102.2119
G1 X134.608 Y69.587 E102.2711
G1 X135.511 Y69.851 E102.3689
G1 X136.024 Y70.076 E102.4271
G1 X136.580 Y70.394 E102.4937
G1 X137.104 Y70.776 E102.5611
G1 X137.464 Y71.098 E102.6113
G1 X137.895 Y71.566 E102.6774
G1 X138.276 Y72.086 E102.7444
G1 X138.713 Y72.893 E102.8398
G1 X138.915 Y73.417 E102.8982
G1 X139.045 Y73.874 E102.9476
G1 X139.187 Y74.769 E103.0418
G1 X139.209 Y75.260 E103.0928
G1 X139.209 Y83.913 E103.9922
G1 X139.174 Y84.553 E104.0588
G1 X139.089 Y85.116 E104.1180
G1 X138.924 Y85.741 E104.1852
G1 X138.688 Y86.346 E104.2527
G1 X138.237 Y87.157 E104.3492
G1 X137.853 Y87.669 E104.4157
G1 X137.479 Y88.079 E104.4734
G1 X136.892 Y88.666 E104.5596
G1 X136.655 Y88.939 E104.5972
G1 X136.478 Y89.219 E104.6317
G1 X136.346 Y89.513 E104.6651
G1 X136.258 Y89.825 E104.6988
G1 X136.209 Y90.316 E104.7501
G1 X136.209 Y113.625 E107.1728
G1 X136.235 Y113.981 E107.2099
G1 X136.306 Y114.300 E107.2439
G1 X136.424 Y114.607 E107.2781
G1 X136.578 Y114.882 E107.3108
G1 X136.901 Y115.277 E107.3639
G1 X137.499 Y115.876 E107.4518
G1 X137.923 Y116.351 E107.5180
G1 X138.301 Y116.875 E107.5852
G1 X138.575 Y117.355 E107.6426
G1 X138.899 Y118.121 E107.7291
G1 X139.078 Y118.774 E107.7994
G1 X139.177 Y119.400 E107.8653
G1 X139.208 Y119.968 E107.9244
G1 X139.209 Y128.663 E108.8282
G1 X139.181 Y129.229 E108.8871
G1 X139.089 Y129.866 E108.9540
G1 X138.890 Y130.588 E109.0318
G1 X138.605 Y131.270 E109.1086
G1 X138.237 Y131.907 E109.1851
G1 X137.846 Y132.427 E109.2527
G1 X137.403 Y132.895 E109.3197
G1 X136.898 Y133.319 E109.3882
G1 X136.361 Y133.675 E109.4552
G1 X135.783 Y133.971 E109.5227
