;Sliced by ideaMaker 3.1.7.1850, 2018-08-21 09:44:40 UTC-0700
;Dimension: 305.000 305.000 605.000 0.400
;Extruder Offset #1: 0.000 0.000
;Filament Diameter #1: 1.750
;Filament Diameter #2: 1.750
;Filament Compensation #1: 90.00
;Filament Compensation #2: 90.00
;Filament Density #1: 1240.00
;Filament Density #2: 1240.00
;Model Gap: 0.000
M221 T1 S90.00
M140 S60.00
M104 T1 S200.00
M109 T1 S200.00
T1
M190 S60.00
G21
G90
M82
M107
G28 X0 Y0
G28 Z0
G1 Z15.0 F6000.0
G92 E0
G1 F140 E29
G1 X20 Y0 F140 E30
G92 E0
G1 F6000.0
M117 Printing...
M1001
;LAYER:0
;Z:0.300
;HEIGHT:0.300
M106 S0
G1 F1200 E-10.0000
T1
M204 S1000.00
G0 F6000 X111.176 Y82.938
G0 F1500 Z0.300
G0 F6000 X111.053 Y83.160
M204 S800.00
;TYPE:SKIRT
;WIDTH:0.500
G1 F1200 E0.0000
G1 F720 X111.176 Y82.938 E0.0158
G1 X111.339 Y82.743 E0.0317
G1 X111.442 Y82.660 E0.0399
G1 X111.665 Y82.526 E0.0562
G1 X111.818 Y82.466 E0.0664
G1 X112.193 Y82.397 E0.0902
G1 X122.257 Y82.401 E0.7178
G1 X122.441 Y82.429 E0.7294
G1 X122.680 Y82.507 E0.7451
G1 X122.902 Y82.630 E0.7609
G1 X123.097 Y82.793 E0.7768
G1 X123.180 Y82.896 E0.7850
G1 X123.314 Y83.119 E0.8012
G1 X123.374 Y83.272 E0.8115
G1 X123.443 Y83.647 E0.8353
G1 X123.443 Y135.329 E4.0583
G1 X124.126 Y136.011 E4.1185
G1 X193.057 Y136.011 E8.4172
G1 X193.065 Y101.992 E10.5387
G1 X192.197 Y100.256 E10.6598
G1 X192.111 Y100.006 E10.6763
G1 X192.072 Y99.781 E10.6905
G1 X192.065 Y93.696 E11.0700
G1 X192.111 Y93.386 E11.0895
G1 X192.197 Y93.136 E11.1060
G1 X192.919 Y91.713 E11.2055
G1 X193.074 Y91.512 E11.2213
G1 X193.301 Y91.314 E11.2401
G1 X193.444 Y91.235 E11.2503
G1 X193.761 Y91.133 E11.2711
G1 X193.986 Y91.104 E11.2852
G1 X204.315 Y91.104 E11.9294
G1 X204.654 Y91.160 E11.9508
G1 X204.802 Y91.214 E11.9606
G1 X205.024 Y91.337 E11.9765
G1 X205.219 Y91.500 E11.9923
G1 X205.302 Y91.603 E12.0006
G1 X205.436 Y91.826 E12.0168
G1 X205.496 Y91.979 E12.0270
G1 X205.565 Y92.354 E12.0508
G1 X205.565 Y140.696 E15.0656
G1 X205.509 Y141.035 E15.0870
G1 X205.453 Y141.188 E15.0971
G1 X205.323 Y141.417 E15.1136
G1 X205.242 Y141.523 E15.1219
G1 X198.635 Y148.144 E15.7052
G1 X198.351 Y148.347 E15.7270
G1 X198.212 Y148.413 E15.7366
G1 X197.963 Y148.486 E15.7527
G1 X197.822 Y148.506 E15.7616
G1 X119.466 Y148.511 E20.6481
G1 X119.127 Y148.455 E20.6696
G1 X118.974 Y148.399 E20.6797
G1 X118.745 Y148.269 E20.6961
G1 X118.639 Y148.188 E20.7045
G1 X111.310 Y140.874 E21.3502
G1 X111.107 Y140.590 E21.3719
G1 X111.041 Y140.451 E21.3815
G1 X110.968 Y140.202 E21.3977
G1 X110.948 Y140.061 E21.4066
G1 X110.943 Y83.647 E24.9247
G1 X110.999 Y83.308 E24.9462
G1 X111.053 Y83.160 E24.9560
G1 F2400 E23.4560
M204 S1000.00
G0 F6000 X111.443 Y83.647
M204 S800.00
G1 F1500 E24.9560
G1 F720 X111.490 Y83.402 E24.9715
G1 X111.613 Y83.180 E24.9874
G1 X111.700 Y83.089 E24.9952
G1 X111.923 Y82.955 E25.0114
G1 X112.193 Y82.897 E25.0287
G1 X122.193 Y82.897 E25.6523
G1 X122.317 Y82.913 E25.6601
G1 X122.438 Y82.944 E25.6679
G1 X122.660 Y83.067 E25.6837
G1 X122.751 Y83.154 E25.6916
G1 X122.885 Y83.377 E25.7078
G1 X122.943 Y83.647 E25.7250
G1 X122.943 Y135.536 E28.9609
G1 X123.919 Y136.511 E29.0470
G1 X193.296 Y136.511 E33.3735
G1 X193.557 Y136.250 E33.3965
G1 X193.565 Y101.874 E35.5403
G1 X192.644 Y100.032 E35.6688
G1 X192.604 Y99.921 E35.6761
G1 X192.565 Y99.696 E35.6903
G1 X192.565 Y93.696 E36.0645
G1 X192.604 Y93.471 E36.0788
G1 X192.644 Y93.360 E36.0861
G1 X193.315 Y92.018 E36.1797
G1 X193.470 Y91.817 E36.1955
G1 X193.610 Y91.707 E36.2066
G1 X193.837 Y91.627 E36.2216
G1 X193.986 Y91.604 E36.2310
G1 X204.315 Y91.604 E36.8752
G1 X204.560 Y91.651 E36.8907
G1 X204.782 Y91.774 E36.9066
G1 X204.873 Y91.861 E36.9144
G1 X205.007 Y92.084 E36.9306
G1 X205.065 Y92.354 E36.9479
G1 X205.065 Y140.696 E39.9626
G1 X205.018 Y140.941 E39.9782
G1 X204.888 Y141.170 E39.9946
G1 X198.281 Y147.791 E40.5779
G1 X198.071 Y147.933 E40.5937
G1 X197.822 Y148.006 E40.6099
G1 X119.466 Y148.011 E45.4964
G1 X119.221 Y147.964 E45.5119
G1 X118.992 Y147.834 E45.5284
G1 X111.663 Y140.520 E46.1741
G1 X111.521 Y140.310 E46.1899
G1 X111.448 Y140.061 E46.2061
G1 X111.443 Y83.647 E49.7242
M204 S1000.00
G0 F6000 X111.943 Y83.647
M204 S800.00
G1 F720 X111.974 Y83.526 E49.7320
G1 X112.061 Y83.435 E49.7398
G1 X112.193 Y83.397 E49.7484
G1 X122.193 Y83.397 E50.3720
G1 X122.314 Y83.428 E50.3798
G1 X122.405 Y83.515 E50.3877
G1 X122.443 Y83.647 E50.3963
G1 X122.443 Y135.743 E53.6451
G1 X123.712 Y137.011 E53.7570
G1 X193.504 Y137.011 E58.1094
G1 X194.057 Y136.458 E58.1582
G1 X194.065 Y101.756 E60.3223
G1 X193.091 Y99.808 E60.4581
G1 X193.065 Y99.696 E60.4653
G1 X193.065 Y93.696 E60.8394
G1 X193.091 Y93.584 E60.8466
G1 X193.762 Y92.242 E60.9402
G1 X193.845 Y92.148 E60.9480
G1 X193.986 Y92.104 E60.9572
G1 X204.315 Y92.104 E61.6014
G1 X204.436 Y92.135 E61.6092
G1 X204.527 Y92.222 E61.6170
G1 X204.565 Y92.354 E61.6256
G1 X204.565 Y140.696 E64.6403
G1 X204.534 Y140.817 E64.6481
G1 X197.927 Y147.438 E65.2314
G1 X197.819 Y147.501 E65.2392
G1 X197.750 Y147.511 E65.2436
G1 X119.466 Y147.511 E70.1256
G1 X119.345 Y147.480 E70.1334
G1 X112.016 Y140.166 E70.7791
G1 X111.953 Y140.058 E70.7869
G1 X111.943 Y139.989 E70.7912
G1 X111.943 Y83.647 E74.3049
G1 F2400 E72.8049
M204 S1000.00
G0 F6000 X112.943 Y84.397
M204 S600.00
;TYPE:WALL-INNER
;WIDTH:0.500
G1 F1500 E74.3049
G1 F720 X121.443 Y84.397 E74.8349
G1 X121.443 Y136.157 E78.0628
G1 X123.298 Y138.011 E78.2264
G1 X193.918 Y138.011 E82.6305
G1 X195.057 Y136.872 E82.7309
G1 X195.065 Y101.519 E84.9356
G1 X194.065 Y99.518 E85.0751
G1 X194.065 Y93.874 E85.4271
G1 X194.450 Y93.104 E85.4808
G1 X203.565 Y93.104 E86.0492
G1 X203.565 Y140.385 E88.9978
G1 X197.439 Y146.511 E89.5381
G1 X119.777 Y146.511 E94.3813
G1 X112.943 Y139.678 E94.9840
G1 X112.943 Y84.397 E98.4314
G1 F2400 E96.9314
M204 S1000.00
G0 F6000 X197.407 Y96.186
M204 S600.00
G1 F1500 E98.4314
G1 F720 X197.339 Y96.693 E98.4633
G1 X197.403 Y97.197 E98.4950
G1 X197.602 Y97.680 E98.5276
G1 X197.919 Y98.094 E98.5601
G1 X198.322 Y98.404 E98.5918
G1 X198.809 Y98.604 E98.6247
G1 X199.308 Y98.670 E98.6560
G1 X199.816 Y98.607 E98.6880
G1 X200.301 Y98.407 E98.7207
G1 X200.706 Y98.099 E98.7524
G1 X201.025 Y97.688 E98.7849
G1 X201.222 Y97.207 E98.8173
G1 X201.290 Y96.696 E98.8494
G1 X201.226 Y96.196 E98.8809
G1 X201.030 Y95.714 E98.9133
G1 X200.706 Y95.294 E98.9464
G1 X200.308 Y94.987 E98.9777
G1 X199.821 Y94.785 E99.0106
G1 X199.321 Y94.722 E99.0420
G1 X198.813 Y94.785 E99.0740
G1 X198.325 Y94.986 E99.1069
G1 X197.926 Y95.292 E99.1382
G1 X197.608 Y95.701 E99.1705
G1 X197.407 Y96.186 E99.2033
G1 F2400 E97.7033
M204 S1000.00
G0 F6000 X197.894 Y96.317
M204 S500.00
;TYPE:WALL-OUTER
;WIDTH:0.500
G1 F1500 E99.2033
G1 F720 X197.843 Y96.695 E99.2271
G1 X197.891 Y97.068 E99.2505
G1 X198.039 Y97.429 E99.2749
G1 X198.276 Y97.738 E99.2991
G1 X198.574 Y97.967 E99.3226
G1 X198.939 Y98.117 E99.3472
G1 X199.310 Y98.166 E99.3705
G1 X199.688 Y98.119 E99.3943
G1 X200.050 Y97.970 E99.4187
G1 X200.351 Y97.741 E99.4423
G1 X200.588 Y97.435 E99.4664
G1 X200.735 Y97.077 E99.4906
G1 X200.786 Y96.695 E99.5146
G1 X200.738 Y96.324 E99.5379
G1 X200.592 Y95.965 E99.5621
G1 X200.350 Y95.651 E99.5868
G1 X200.055 Y95.424 E99.6100
G1 X199.691 Y95.273 E99.6346
G1 X199.320 Y95.226 E99.6579
G1 X198.941 Y95.273 E99.6817
G1 X198.577 Y95.423 E99.7063
G1 X198.281 Y95.650 E99.7296
G1 X198.044 Y95.955 E99.7536
G1 X197.894 Y96.317 E99.7781
G1 F2400 E98.2781
M204 S1000.00
G0 F6000 X193.565 Y93.756
M204 S500.00
G1 F1500 E99.7781
G1 F720 X194.141 Y92.604 E99.8584
G1 X204.065 Y92.604 E100.4773
G1 X204.065 Y140.593 E103.4700
G1 X197.647 Y147.011 E104.0360
G1 X119.569 Y147.011 E108.9052
G1 X112.443 Y139.886 E109.5336
G1 X112.443 Y83.897 E113.0253
G1 X121.943 Y83.897 E113.6177
G1 X121.943 Y135.950 E116.8639
G1 X123.505 Y137.511 E117.0016
G1 X193.711 Y137.511 E121.3798
G1 X194.557 Y136.665 E121.4544
G1 X194.565 Y101.637 E123.6389
G1 X193.565 Y99.636 E123.7784
G1 X193.565 Y93.756 E124.1451
G1 F2400 E122.6451
M204 S1000.00
G0 F6000 X203.158 Y93.203
M204 S800.00
;TYPE:SOLID-FILL
;WIDTH:0.500
G1 F1500 E124.1451
G1 F720 X203.464 Y93.509 E124.1721
G1 F2400 E122.6721
M204 S1000.00
G0 F6000 X203.464 Y94.216
M204 S800.00
G1 F1500 E124.1721
G1 F720 X202.451 Y93.203 E124.2614
G1 F2400 E122.7614
M204 S1000.00
G0 F6000 X201.744 Y93.203
M204 S800.00
G1 F1500 E124.2614
G1 F720 X203.464 Y94.923 E124.4131
G1 F2400 E122.9131
M204 S1000.00
G0 F6000 X203.464 Y95.630
M204 S800.00
G1 F1500 E124.4131
G1 F720 X201.037 Y93.203 E124.6272
G1 F2400 E123.1272
M204 S1000.00
G0 F6000 X200.330 Y93.203
M204 S800.00
G1 F1500 E124.6272
G1 F720 X203.464 Y96.337 E124.9035
G1 F2400 E123.4035
M204 S1000.00
G0 F6000 X203.464 Y97.044
M204 S800.00
G1 F1500 E124.9035
G1 F720 X199.623 Y93.203 E125.2423
G1 F2400 E123.7423
M204 S1000.00
G0 F6000 X198.916 Y93.203
M204 S800.00
G1 F1500 E125.2423
G1 F720 X203.464 Y97.751 E125.6434
G1 F2400 E124.1434
M204 S1000.00
G0 F6000 X203.464 Y98.458
M204 S800.00
G1 F1500 E125.6434
G1 F720 X201.344 Y96.339 E125.8303
G1 F2400 E124.3303
M204 S1000.00
G0 F6000 X201.342 Y97.044
M204 S800.00
G1 F1500 E125.8303
G1 F720 X203.464 Y99.166 E126.0175
G1 F2400 E124.5175
M204 S1000.00
G0 F6000 X203.464 Y99.873
M204 S800.00
G1 F1500 E126.0175
G1 F720 X201.174 Y97.582 E126.2195
G1 F2400 E124.7195
M204 S1000.00
G0 F6000 X200.897 Y98.013
M204 S800.00
G1 F1500 E126.2195
G1 F720 X203.464 Y100.580 E126.4459
G1 F2400 E124.9459
M204 S1000.00
G0 F6000 X203.464 Y101.287
M204 S800.00
G1 F1500 E126.4459
G1 F720 X200.533 Y98.356 E126.7044
G1 F2400 E125.2044
M204 S1000.00
G0 F6000 X200.077 Y98.607
M204 S800.00
G1 F1500 E126.7044
G1 F720 X203.464 Y101.994 E127.0031
G1 F2400 E125.5031
M204 S1000.00
G0 F6000 X203.464 Y102.701
M204 S800.00
G1 F1500 E127.0031
G1 F720 X199.508 Y98.746 E127.3520
G1 F2400 E125.8520
M204 S1000.00
G0 F6000 X198.740 Y98.684
M204 S800.00
G1 F1500 E127.3520
G1 F720 X203.464 Y103.408 E127.7686
G1 F2400 E126.2686
M204 S1000.00
G0 F6000 X203.464 Y104.115
M204 S800.00
G1 F1500 E127.7686
G1 F720 X194.163 Y94.815 E128.5888
G1 F2400 E127.0888
M204 S1000.00
G0 F6000 X194.163 Y95.522
M204 S800.00
G1 F1500 E128.5888
G1 F720 X203.464 Y104.822 E129.4091
G1 F2400 E127.9091
M204 S1000.00
G0 F6000 X203.464 Y105.530
M204 S800.00
G1 F1500 E129.4091
G1 F720 X194.163 Y96.229 E130.2294
G1 F2400 E128.7294
M204 S1000.00
G0 F6000 X194.163 Y96.936
M204 S800.00
G1 F1500 E130.2294
G1 F720 X203.464 Y106.237 E131.0497
G1 F2400 E129.5497
M204 S1000.00
G0 F6000 X203.464 Y106.944
M204 S800.00
G1 F1500 E131.0497
G1 F720 X194.163 Y97.643 E131.8700
G1 F2400 E130.3700
M204 S1000.00
G0 F6000 X194.163 Y98.350
M204 S800.00
G1 F1500 E131.8700
G1 F720 X203.464 Y107.651 E132.6903
G1 F2400 E131.1903
M204 S1000.00
G0 F6000 X203.464 Y108.358
M204 S800.00
G1 F1500 E132.6903
G1 F720 X194.163 Y99.057 E133.5106
G1 F2400 E132.0106
M204 S1000.00
G0 F6000 X194.433 Y100.034
M204 S800.00
G1 F1500 E133.5106
G1 F720 X203.464 Y109.065 E134.3070
G1 F2400 E132.8070
M204 S1000.00
G0 F6000 X203.464 Y109.772
M204 S800.00
G1 F1500 E134.3070
G1 F720 X195.140 Y101.448 E135.0412
G1 F2400 E133.5412
M204 S1000.00
G0 F6000 X195.163 Y102.179
M204 S800.00
G1 F1500 E135.0412
G1 F720 X203.464 Y110.479 E135.7732
G1 F2400 E134.2732
M204 S1000.00
G0 F6000 X203.464 Y111.186
M204 S800.00
G1 F1500 E135.7732
G1 F720 X195.163 Y102.886 E136.5053
G1 F2400 E135.0053
M204 S1000.00
G0 F6000 X195.163 Y103.593
M204 S800.00
G1 F1500 E136.5053
G1 F720 X203.464 Y111.893 E137.2373
G1 F2400 E135.7373
M204 S1000.00
G0 F6000 X203.464 Y112.601
M204 S800.00
G1 F1500 E137.2373
G1 F720 X195.163 Y104.300 E137.9694
G1 F2400 E136.4694
M204 S1000.00
G0 F6000 X195.162 Y105.006
M204 S800.00
G1 F1500 E137.9694
G1 F720 X203.464 Y113.308 E138.7016
G1 F2400 E137.2016
M204 S1000.00
G0 F6000 X203.464 Y114.015
M204 S800.00
G1 F1500 E138.7016
G1 F720 X195.162 Y105.713 E139.4338
G1 F2400 E137.9338
M204 S1000.00
G0 F6000 X195.162 Y106.420
M204 S800.00
G1 F1500 E139.4338
G1 F720 X203.464 Y114.722 E140.1660
G1 F2400 E138.6660
M204 S1000.00
G0 F6000 X203.464 Y115.429
M204 S800.00
G1 F1500 E140.1660
G1 F720 X195.162 Y107.128 E140.8981
G1 F2400 E139.3981
M204 S1000.00
G0 F6000 X195.162 Y107.835
M204 S800.00
G1 F1500 E140.8981
G1 F720 X203.464 Y116.136 E141.6303
G1 F2400 E140.1303
M204 S1000.00
G0 F6000 X203.464 Y116.843
M204 S800.00
G1 F1500 E141.6303
G1 F720 X195.162 Y108.541 E142.3625
G1 F2400 E140.8625
M204 S1000.00
G0 F6000 X195.162 Y109.248
M204 S800.00
G1 F1500 E142.3625
G1 F720 X203.464 Y117.550 E143.0947
G1 F2400 E141.5947
M204 S1000.00
G0 F6000 X203.464 Y118.257
M204 S800.00
G1 F1500 E143.0947
G1 F720 X195.162 Y109.955 E143.8269
G1 F2400 E142.3269
M204 S1000.00
G0 F6000 X195.162 Y110.662
M204 S800.00
G1 F1500 E143.8269
G1 F720 X203.464 Y118.965 E144.5591
G1 F2400 E143.0591
M204 S1000.00
G0 F6000 X203.464 Y119.672
M204 S800.00
G1 F1500 E144.5591
G1 F720 X195.161 Y111.369 E145.2914
G1 F2400 E143.7914
M204 S1000.00
G0 F6000 X195.161 Y112.076
M204 S800.00
G1 F1500 E145.2914
G1 F720 X203.464 Y120.379 E146.0237
G1 F2400 E144.5237
M204 S1000.00
G0 F6000 X203.464 Y121.086
M204 S800.00
G1 F1500 E146.0237
G1 F720 X195.161 Y112.783 E146.7559
G1 F2400 E145.2559
M204 S1000.00
G0 F6000 X195.161 Y113.490
M204 S800.00
G1 F1500 E146.7559
G1 F720 X203.464 Y121.793 E147.4882
G1 F2400 E145.9882
M204 S1000.00
G0 F6000 X203.464 Y122.500
M204 S800.00
G1 F1500 E147.4882
G1 F720 X195.161 Y114.197 E148.2205
G1 F2400 E146.7205
M204 S1000.00
G0 F6000 X195.160 Y114.904
M204 S800.00
G1 F1500 E148.2205
G1 F720 X203.464 Y123.207 E148.9528
G1 F2400 E147.4528
M204 S1000.00
G0 F6000 X203.464 Y123.914
M204 S800.00
G1 F1500 E148.9528
G1 F720 X195.160 Y115.611 E149.6851
G1 F2400 E148.1851
M204 S1000.00
G0 F6000 X195.160 Y116.318
M204 S800.00
G1 F1500 E149.6851
G1 F720 X203.464 Y124.621 E150.4174
G1 F2400 E148.9174
M204 S1000.00
G0 F6000 X203.464 Y125.329
M204 S800.00
G1 F1500 E150.4174
G1 F720 X195.160 Y117.025 E151.1498
G1 F2400 E149.6498
M204 S1000.00
G0 F6000 X195.160 Y117.731
M204 S800.00
G1 F1500 E151.1498
G1 F720 X203.464 Y126.036 E151.8822
G1 F2400 E150.3822
M204 S1000.00
G0 F6000 X203.464 Y126.743
M204 S800.00
G1 F1500 E151.8822
G1 F720 X195.160 Y118.438 E152.6146
G1 F2400 E151.1146
M204 S1000.00
G0 F6000 X195.160 Y119.146
M204 S800.00
G1 F1500 E152.6146
G1 F720 X203.464 Y127.450 E153.3470
G1 F2400 E151.8470
M204 S1000.00
G0 F6000 X203.464 Y128.157
M204 S800.00
G1 F1500 E153.3470
G1 F720 X195.160 Y119.853 E154.0794
G1 F2400 E152.5794
M204 S1000.00
G0 F6000 X195.160 Y120.560
M204 S800.00
G1 F1500 E154.0794
G1 F720 X203.464 Y128.864 E154.8117
G1 F2400 E153.3117
M204 S1000.00
G0 F6000 X203.464 Y129.571
M204 S800.00
G1 F1500 E154.8117
G1 F720 X195.159 Y121.266 E155.5442
G1 F2400 E154.0442
M204 S1000.00
G0 F6000 X195.159 Y121.973
M204 S800.00
G1 F1500 E155.5442
G1 F720 X203.464 Y130.278 E156.2766
G1 F2400 E154.7766
M204 S1000.00
G0 F6000 X203.464 Y130.985
M204 S800.00
G1 F1500 E156.2766
G1 F720 X195.159 Y122.680 E157.0091
G1 F2400 E155.5091
M204 S1000.00
G0 F6000 X195.159 Y123.388
M204 S800.00
G1 F1500 E157.0091
G1 F720 X203.464 Y131.692 E157.7415
G1 F2400 E156.2415
M204 S1000.00
G0 F6000 X203.464 Y132.400
M204 S800.00
G1 F1500 E157.7415
G1 F720 X195.158 Y124.094 E158.4740
G1 F2400 E156.9740
M204 S1000.00
G0 F6000 X195.158 Y124.801
M204 S800.00
G1 F1500 E158.4740
G1 F720 X203.464 Y133.107 E159.2066
G1 F2400 E157.7066
M204 S1000.00
G0 F6000 X203.464 Y133.814
M204 S800.00
G1 F1500 E159.2066
G1 F720 X195.158 Y125.508 E159.9391
G1 F2400 E158.4391
M204 S1000.00
G0 F6000 X195.158 Y126.215
M204 S800.00
